X:12
T:The Field of Bannockburn
R:strathspey
O:18th century Scottish
S:Silver Apple News, 2004
D:Velvet Arm Golden Hand, Joe Cormier
B:Alexander Walker
Z:Paul Stewart Cranford (P.S.C.), <http://www.cranfordpub.com>
Q:300
L:1/8
M:C
K:Gdor
F|D<GG>A B>cd<f|F<FA>F B>GA>F|D<GG>A B>cd>g|g>d (3cBA {D} G2 G:|
||g|g2 G>A B>cd<g|f2 F>G A>B cb/a/|g2 G>A B>c dg/f/|g>d (3cBA {D} G2 G>g|
g2 G>A B>cd<g|f2 F>G A>B cb/a/|ge f>ga<g|(3fed (3cBA {D}G2 G|]
